app/assets/svgs/linkedin.svg

<?xml version="1.0" encoding="UTF-8" standalone="no"?>
<svg width="76px" height="72px" viewBox="0 0 76 72" version="1.1" xmlns="http://www.w3.org/2000/svg" xmlns:xlink="http://www.w3.org/1999/xlink">
    <!-- Generator: Sketch 3.7.2 (28276) - http://www.bohemiancoding.com/sketch -->
    <title>linkedin</title>
    <desc>Created with Sketch.</desc>
    <defs></defs>
    <g id="Page-1" stroke="none" stroke-width="1" fill="none" fill-rule="evenodd">
        <g id="linkedin-icon-1" fill="#FFFFFF">
            <path d="M0,8.32530282 C0,5.9121233 0.844620069,3.92129002 2.53378781,2.35280297 C4.22295556,0.784243525 6.41895326,0 9.12163613,0 C11.7761046,0 13.9237432,0.772153738 15.5646966,2.316606 C17.2538643,3.90927263 18.0984844,5.98451724 18.0984844,8.54248463 C18.0984844,10.8590906 17.2780439,12.7895474 15.6370905,14.3339996 C13.9479228,15.9266663 11.7278179,16.7229996 8.97684826,16.7229996 L8.90445432,16.7229996 C6.24998581,16.7229996 4.10234726,15.9266663 2.46139388,14.3339996 C0.820440494,12.741333 0,10.7384099 0,8.32530282 L0,8.32530282 Z M0.941121188,71.6699982 L0.941121188,23.3108479 L17.0125753,23.3108479 L17.0125753,71.6699982 L0.941121188,71.6699982 L0.941121188,71.6699982 Z M25.9170296,71.6699982 L41.9884838,71.6699982 L41.9884838,44.6670595 C41.9884838,42.9778193 42.1815584,41.6747285 42.5676353,40.7577868 C43.2432879,39.1168335 44.2688928,37.7292589 45.6443776,36.5951354 C47.0198624,35.4609396 48.7452271,34.8938779 50.8205442,34.8938779 C56.2259823,34.8938779 58.9286652,38.537682 58.9286652,45.8253625 L58.9286652,71.6699982 L75.0001193,71.6699982 L75.0001193,43.9431201 C75.0001193,36.8002275 73.3109516,31.3827719 69.9325437,27.6906811 C66.5541358,23.9985903 62.0898912,22.1525449 56.5396652,22.1525449 C50.3137866,22.1525449 45.4633928,24.8311206 41.9884838,30.188272 L41.9884838,30.3330598 L41.9160898,30.3330598 L41.9884838,30.188272 L41.9884838,23.3108479 L25.9170296,23.3108479 C26.0135308,24.8552278 26.0618175,29.6573348 26.0618175,37.7172415 C26.0618175,45.7770757 26.0135308,57.0946371 25.9170296,71.6699982 L25.9170296,71.6699982 Z" id="Shape"></path>
        </g>
    </g>
</svg>

<svg width="76" height="72" viewBox="0 0 76 72" xmlns="http://www.w3.org/2000/svg"><title>linkedin</title><path d="M0 8.325c0-2.413.845-4.404 2.534-5.972C4.223.784 6.419 0 9.122 0c2.654 0 4.802.772 6.443 2.317 1.689 1.592 2.533 3.668 2.533 6.225 0 2.317-.82 4.248-2.46 5.792-1.69 1.593-3.91 2.389-6.661 2.389h-.073c-2.654 0-4.802-.796-6.443-2.389C.821 12.741 0 10.738 0 8.325zM.941 71.67V23.31h16.072v48.36H.94zm24.976 0h16.071V44.667c0-1.69.194-2.992.58-3.91a10.499 10.499 0 0 1 3.076-4.162c1.376-1.134 3.101-1.701 5.177-1.701 5.405 0 8.108 3.644 8.108 10.931V71.67H75V43.943c0-7.143-1.689-12.56-5.067-16.252-3.379-3.692-7.843-5.538-13.393-5.538-6.226 0-11.077 2.678-14.552 8.035v.145h-.072l.072-.145v-6.877H25.917c.097 1.544.145 6.346.145 14.406s-.048 19.378-.145 33.953z" fill="#FFF" fill-rule="evenodd"/></svg>
